X:19025
T:Star of the County Down
T:Unquiet Grave, The
R:Waltz
C:Trad.
O:Ireland
M:3/4
L:1/4
Q:1/4=120
K:Am
cB|"Am"A2 A|A>"C"G"Am"A|c2 c|"Dm"d>"Am"c"Dm"d|"Am"e"Dm"d"Am"c|A2 A|"C"G3-|G"Am"c"G"B|
"Am"A2 A|A>"C"G"Am"A|c2 c|"Dm"d>"Am"c"Dm"d|"Am"e"Dm"d"Am"c|A2"C"G|"Am"A3-|A e"F"f|
"C"g2"Am"e|e"Dm"d"Am"c|"Dm"d2 d|d>"Am"c"Dm"d|"Am"e>"Dm"d"Am"c|A2 A|"C"G3-|G"Am"c"G"B|
"Am"A2A|A>"C"G"Am"A|c2c|"Dm"d>"Am"c"Dm"d|"Am"e"Dm"d"Am"c|A2"C"G|"Am"A3-|A2|]

